source/elements/MoveBackward.svg

<svg width="24" height="24" viewBox="0 0 24 24" fill="none" xmlns="http://www.w3.org/2000/svg">
<g clip-path="url(#clip0_8058_113)">
<path d="M9 10.1113H6.11133V17.8887H13.8887V15H15V19H5V9H9V10.1113Z" fill="#0C111D" data-dark-mode-fill-color="true" />
<path d="M19 15H9V5H19V15ZM14 7.66699C13.8159 7.66699 13.667 7.81591 13.667 8V11.1963L12.2354 9.76465L12.1836 9.72168C12.0542 9.63613 11.8786 9.6507 11.7646 9.76465C11.6507 9.8786 11.6361 10.0542 11.7217 10.1836L11.7646 10.2354L13.7646 12.2354C13.8786 12.3493 14.0542 12.3639 14.1836 12.2783L14.2354 12.2354L16.2354 10.2354C16.3655 10.1052 16.3655 9.89482 16.2354 9.76465C16.1052 9.63447 15.8948 9.63447 15.7646 9.76465L14.333 11.1963V8C14.333 7.81591 14.1841 7.66699 14 7.66699Z" fill="#0C111D" data-dark-mode-fill-color="true"/>
</g>
<defs>
<clipPath id="clip0_8058_113">
<rect width="24" height="24" fill="white"/>
</clipPath>
</defs>
</svg>

<svg width="24" height="24" viewBox="0 0 24 24" fill="none" xmlns="http://www.w3.org/2000/svg">
  <path
    d="M9 10.11H6.11v7.78h7.78V15H15v4H5V9h4v1.11z"
    fill="currentColor"
    data-dark-mode-color="true"
  />
  <path
    d="M19 15H9V5h10v10zM14 7.67c-.18 0-.33.15-.33.33v3.2l-1.43-1.44a.33.33 0 00-.47.47l2 2 .05.04c.13.09.31.07.43-.04l2-2a.33.33 0 00-.47-.47L14.33 11.2V8c0-.18-.15-.33-.33-.33z"
    fill="currentColor"
    data-dark-mode-color="true"
  />
</svg>
